Adwaita++/emblems/16/emblem-personal.svg

<svg xmlns="http://www.w3.org/2000/svg" fill="none" width="16" height="16" version="1.1" viewBox="0 0 16 16">
 <path fill="#3584E4" d="M13.6 1H2.4C1.6268 1 1 1.6268 1 2.4V13.6C1 14.3732 1.6268 15 2.4 15H13.6C14.3732 15 15 14.3732 15 13.6V2.4C15 1.6268 14.3732 1 13.6 1Z"/>
 <path style="fill:#f6f5f4" d="M 8 3 C 7.6599 3 7.3367225 3.065925625 7.0390625 3.197265625 C 6.7433225 3.322595625 6.481621875 3.506140625 6.263671875 3.744140625 L 6.26171875 3.74609375 L 6.259765625 3.748046875 C 6.047605625 3.987376875 5.883298125 4.2748925 5.767578125 4.6015625 C 5.648558125 4.9434625 5.58953 5.30449875 5.59375 5.66796875 C 5.59375 6.05462875 5.649928125 6.4155175 5.767578125 6.7421875 C 5.883298125 7.0635175 6.047605625 7.3472675 6.259765625 7.5859375 L 6.263671875 7.587890625 C 6.480981875 7.825230625 6.74070625 8.011908125 7.03515625 8.142578125 L 7.041015625 8.146484375 C 7.338035625 8.271824375 7.66054 8.333984375 8 8.333984375 C 8.33945 8.333984375 8.66001125 8.271824375 8.95703125 8.146484375 L 8.95703125 8.14453125 C 9.24704125 8.01727125 9.50833625 7.827140625 9.72265625 7.587890625 C 9.94124625 7.349230625 10.10820938 7.0648475 10.22460938 6.7421875 C 10.34290937 6.4155175 10.40039062 6.054015625 10.40039062 5.666015625 L 10.40625 5.666015625 C 10.40625 5.284015625 10.35012187 4.9275625 10.23242188 4.6015625 C 10.12332188 4.2837925 9.95258875 3.99251375 9.73046875 3.74609375 C 9.51623875 3.50658375 9.2530775 3.319515625 8.9609375 3.197265625 C 8.6564675 3.064925625 8.33012 2.99743 8 3 z M 8.017578125 9.68359375 C 6.165378125 9.68359375 5.17293375 9.861413125 4.43359375 10.43945312 C 4.06392375 10.72875313 3.819860625 11.12137812 3.681640625 11.58007812 C 3.544060625 12.03877813 3.50064 12.38864688 3.5 12.99804688 L 4.142578125 13 L 11.85742188 13 L 12.5 13 C 12.5 12.39 12.4578125 12.04073125 12.3203125 11.58203125 C 12.1833125 11.12343125 11.9393125 10.72815313 11.5703125 10.43945312 C 10.8316125 9.860813125 9.869788125 9.68359375 8.017578125 9.68359375 z"/>
</svg>

<svg fill="none" height="16" viewBox="0 0 16 16" width="16" xmlns="http://www.w3.org/2000/svg">
  <path d="m13.6 1h-11.2c-.7732 0-1.4.6268-1.4 1.4v11.2c0 .7732.6268 1.4 1.4 1.4h11.2c.7732 0 1.4-.6268 1.4-1.4v-11.2c0-.7732-.6268-1.4-1.4-1.4z" fill="#3584e4"/>
  <path d="m8 3c-.3401 0-.6632775.06592563-.9609375.19726563-.29574.12533-.55744062.308875-.77539062.546875l-.00195313.00195312-.00195312.00195313c-.21216.23933-.3764675.52684562-.4921875.85351562-.11902.3419-.17804813.70293625-.17382813 1.06640625 0 .38666.05617813.74754875.17382813 1.07421875.11572.32133.2800275.60508.4921875.84375l.00390625.00195313c.21731.23734.47703437.4240175.77148437.5546875l.00585938.00390625c.29702.12534.61952437.1875.95898437.1875.33945 0 .66001125-.06216.95703125-.1875v-.00195313c.29001-.12726.551305-.31739062.765625-.55664062.21859-.23866.38555313-.52304313.50195313-.84570313.11829999-.32667.17578124-.68817187.17578124-1.07617187h.00585938c0-.382-.05612813-.73845313-.17382812-1.06445313-.1091-.31777-.27983313-.60904875-.50195313-.85546875-.21423-.23951-.47739125-.42657812-.76953125-.54882812-.30447-.13234-.6308175-.19983563-.9609375-.19726563zm.01757813 6.68359375c-1.8522 0-2.84464438.17781938-3.58398438.75585937-.36967.28930001-.61373312.681925-.75195312 1.140625-.13758.45870001-.18100063.80856876-.18164063 1.41796876l.64257813.00195312h7.71484375.64257812c0-.61-.0421875-.95926875-.1796875-1.41796875-.137-.4586-.381-.85387812-.75-1.14257813-.7387-.57863999-1.70052437-.75585937-3.55273437-.75585937z" fill="#f6f5f4"/>
</svg>
